src/assets/image/block12/dodoktor 1.svg

<svg width="150" height="44" viewBox="0 0 150 44" fill="none" xmlns="http://www.w3.org/2000/svg">
<path d="M37.6848 31.6439L42.251 27.4364H37.4856V9.10355H37.5311L33.2041 4.78223H24.533L24.3907 4.93596L8.02205 21.4413L8.00497 27.4364H4.65154L0 31.6439H37.6848ZM12.5199 22.4319L26.0645 9.10355H32.6234V27.4364H12.5199V22.4319Z" fill="#00375B"/>
<path d="M4.69271 41.5218V38.4189H5.45563V41.5218H6.21286V42.7629L5.45563 43.412V42.1139H0.917969V38.4189H1.67519V41.5218H4.69271Z" fill="#314C89"/>
<path d="M10.4878 39.3298L7.69805 42.1139H7.05469V38.4189H7.81761V41.1061L10.4878 38.4189H11.2507V42.1139H10.4878V39.3298Z" fill="#314C89"/>
<path d="M15.7425 41.522H17.832V39.0112H15.7937L16.3858 38.4191H17.9515L18.5949 39.0112V41.522L17.9515 42.1141H15.7425V43.6741H14.9796V42.1141H12.7762L12.1328 41.522V39.0112L12.7762 38.4191H14.9796V37.417H15.7425V41.522ZM12.8901 41.522H14.9796V39.0112H12.8901V41.522Z" fill="#314C89"/>
<path d="M19.4766 38.4189H20.2338V41.5218H23.1261V39.011H20.2964L20.9398 38.4189H23.2969L23.889 39.011H23.8833V41.5275H23.8776L23.2285 42.1139H20.2338V43.6739H19.4766V38.4189Z" fill="#314C89"/>
<path d="M24.5664 39.011L25.2098 38.4189H28.512L29.1667 39.011V41.5218L28.512 42.1139H25.2098L24.5664 41.5218V39.011ZM28.4038 39.011H25.3294V41.5218H28.4038V39.011Z" fill="#314C89"/>
<path d="M34.3716 39.011V39.9789L34.0755 40.2351L34.3716 40.4913V41.5218L33.7282 42.1139H29.8965V38.4189H33.7282L34.3716 39.011ZM33.6143 39.011H30.6594V39.9219H33.6143V39.011ZM33.6143 41.5218V40.514H30.6594V41.5218H33.6143Z" fill="#314C89"/>
<path d="M35.955 38.4189H38.7733L39.428 39.011V42.1139H38.6651V40.5083H35.7785V41.5218H38.6082L38.0161 42.1139H35.6077L35.0156 41.5218V40.5083L35.6077 39.9162H38.6651V39.011H35.3629L35.955 38.4189Z" fill="#314C89"/>
<path d="M44.1532 38.4189V42.1139H43.3903V40.9638H42.1548L40.9991 42.1139H40.0938L41.2553 40.9638H40.9991L40.2362 40.3148V39.0679L40.9991 38.4189H44.1532ZM40.9991 40.3717H43.3903V39.011H40.9991V40.3717Z" fill="#314C89"/>
<path d="M49.3223 41.5218V39.011L49.9145 38.4189H53.1426L53.7348 39.011H50.0796V41.5218H53.7348L53.1426 42.1139H49.9145L49.3223 41.5218Z" fill="#314C89"/>
<path d="M58.7564 39.011H56.9059V42.1139H56.1431V39.011H54.2812L54.9246 38.4189H58.1129L58.7564 39.011Z" fill="#314C89"/>
<path d="M59.3477 39.011L59.9854 38.4189H63.2875L63.9423 39.011V41.5218L63.2875 42.1139H59.9854L59.3477 41.5218V39.011ZM63.1851 39.011H60.1049V41.5218H63.1851V39.011Z" fill="#314C89"/>
<path d="M65.3604 38.4189H65.3661L67.3019 40.2464L69.2547 38.4189H69.8924V42.1139H69.1295V39.3697L67.2962 41.0891L65.4857 39.3583V42.1139H64.7285V38.4189H65.3604Z" fill="#314C89"/>
<path d="M71.5839 38.4189H74.4022L75.0569 39.011V42.1139H74.294V40.5083H71.4018V41.5218H74.2314L73.6393 42.1139H71.2366L70.6445 41.5218V40.5083L71.2366 39.9162H74.294V39.011H70.9918L71.5839 38.4189Z" fill="#314C89"/>
<path d="M80.1392 39.011H78.2888V42.1139H77.5316V39.011H75.6641L76.3075 38.4189H79.4958L80.1392 39.011Z" fill="#314C89"/>
<path d="M80.7324 39.011L81.3757 38.4189H84.6779L85.3327 39.011V41.5218L84.6779 42.1139H81.3757L80.7324 41.5218V39.011ZM84.5697 39.011H81.4953V41.5218H84.5697V39.011Z" fill="#314C89"/>
<path d="M85.918 42.1148L87.6887 38.4141H88.7249L90.5183 42.1148H89.6472L88.1442 39.0005L86.6639 42.1148H85.918Z" fill="#314C89"/>
<path d="M91.1855 39.011L91.8289 38.4189H95.1311L95.7802 39.011V41.5218L95.1311 42.1139H91.8289L91.1855 41.5218V39.011ZM95.0229 39.011H91.9427V41.5218H95.0229V39.011Z" fill="#314C89"/>
<path d="M99.5725 38.4189L100.227 39.011H97.3236V42.1139H96.5664V38.4189H99.5725Z" fill="#314C89"/>
<path d="M104.39 39.3298L101.594 42.1139H100.957V38.4189H101.714V41.1061L104.39 38.4189H105.147V42.1139H104.39V39.3298Z" fill="#314C89"/>
<path d="M109.952 38.4189V42.1139H109.194V40.9638H107.959L106.797 42.1139H105.898L107.054 40.9638H106.797L106.04 40.3148V39.0679L106.797 38.4189H109.952ZM106.797 40.3717H109.194V39.011H106.797V40.3717Z" fill="#314C89"/>
<path d="M39.2617 6.49013L41.0495 4.84473H50.2216L52.0378 6.49013V13.4645L50.2216 15.11H41.0495L39.2617 13.4645V6.49013ZM49.9255 6.49013H41.374V13.4645H49.9255V6.49013Z" fill="#00375B"/>
<path d="M65.5327 6.49049V13.4649L63.7165 15.1104H55.3186L53.5195 13.4649V2.18056L55.3357 0.535156H63.5741L65.3562 2.18056H55.6318V6.49049L57.6074 4.84509H63.7165L65.5327 6.49049ZM63.4204 13.4649V6.49049H55.6318V13.4649H63.4204Z" fill="#00375B"/>
<path d="M67.2734 4.84473H69.38V13.4645H77.4134V6.49013H69.5565L71.3385 4.84473H77.8974L79.5428 6.49013H79.5257V13.4816H79.5086L77.7095 15.11H69.38V19.4313H67.2734V4.84473Z" fill="#00375B"/>
<path d="M83.5336 13.465H90.713V10.2938H83.3742V15.1104H81.2676V4.82812H83.3742V8.65411H91.1799L92.8253 10.2938V13.465L91.0091 15.1104H85.179L83.5336 13.465ZM94.5903 4.82812H96.7025V15.1104H94.5903V4.82812Z" fill="#00375B"/>
<path d="M108.306 7.37299L100.552 15.1104H98.7695V4.84511H100.882V12.3035L108.306 4.84511H110.418V15.1104H108.306V7.37299ZM100.5 0H102.613V2.03825H106.143V0H108.255V2.03825L106.439 3.68365H102.283L100.5 2.03825V0Z" fill="#00375B"/>
<path d="M44.1133 23.1044L45.8953 21.459H55.0674L56.8836 23.1044V30.0788L55.0674 31.7242H45.8953L44.1133 30.0788V23.1044ZM54.7714 23.1044H46.2255V30.0788H54.7714V23.1044Z" fill="#00375B"/>
<path d="M58.625 21.459H60.7372V31.7243H58.625V21.459ZM69.3913 21.459L63.658 26.4806L69.6645 31.7243H66.7609L60.908 26.4635L66.7609 21.459H69.3913Z" fill="#00375B"/>
<path d="M82.2122 23.1044H77.0767V31.7243H74.9644V23.1044H69.7891L71.5711 21.459H80.4301L82.2122 23.1044Z" fill="#00375B"/>
<path d="M83.4258 23.1044L85.2079 21.459H94.38L96.1962 23.1044V30.0789L94.38 31.7243H85.2079L83.4258 30.0789V23.1044ZM94.0897 23.1044H85.5381V30.0789H94.0897V23.1044Z" fill="#00375B"/>
<path d="M97.9375 21.459H100.05V30.0789H108.083V23.1044H100.221L102.008 21.459H108.567L110.207 23.1044H110.19V30.096H110.173L108.374 31.7243H100.05V36.0513H97.9375V21.459Z" fill="#00375B"/>
<path fill-rule="evenodd" clip-rule="evenodd" d="M148.888 5.63116C147.294 3.17729 145.278 2.03291 142.551 2.03291C141.236 2.03291 139.75 2.29481 137.871 2.84707C137.367 3.00046 136.843 3.07912 136.317 3.08051C134.757 3.08051 133.276 2.40299 131.716 1.69131C129.94 0.882835 128.107 0.0458984 125.915 0.0458984C124.133 0.0458984 122.379 0.603853 120.557 1.75962C117.688 3.57014 116.572 6.33145 117.238 9.95817C117.756 12.7935 119.288 15.5833 120.204 17.2458L120.512 17.8094C121.297 19.2727 122.129 20.9124 122.413 21.9884C122.698 23.0645 122.801 24.7099 122.897 26.3895C122.994 28.1943 123.097 30.0674 123.478 31.69C123.581 32.1398 124.56 36.074 126.997 36.074C128.05 36.074 129.097 35.3395 130.191 33.8251C131.028 32.6636 131.899 31.0524 132.781 29.0255C133.265 27.9096 133.618 27.6989 134.096 27.6989H134.148C134.66 27.6989 134.962 28.0064 135.486 29.0711C137.928 33.9788 139.647 36.074 141.247 36.074C143.684 36.074 144.663 32.1398 144.766 31.69C145.142 30.0731 145.244 28.2171 145.341 26.4236C145.432 24.7327 145.517 23.1328 145.825 21.9884C146.132 20.8441 146.998 19.1702 147.732 17.8094C149.713 14.1144 151.057 8.97321 148.888 5.63116ZM148.728 12.7821L145.472 9.73612C145.541 9.59642 145.576 9.44228 145.574 9.28635C145.573 9.13747 145.542 8.99031 145.483 8.85364L148.273 6.33715C149.332 8.16474 149.269 10.5332 148.728 12.7821ZM147.926 5.80196L145.062 8.39248C144.902 8.29662 144.719 8.24549 144.532 8.24445L144.401 8.25583L141.959 2.94386C144.493 2.79014 146.383 3.5986 147.926 5.80196ZM125.647 8.71131C125.659 8.70561 125.664 8.69423 125.676 8.68284L136.248 14.1201C136.243 14.1543 136.243 14.1884 136.237 14.2226L129.838 15.794C129.746 15.6403 129.616 15.5129 129.46 15.4242C129.304 15.3354 129.129 15.2882 128.949 15.2873C128.9 15.287 128.85 15.2927 128.801 15.3043L125.647 8.71131ZM128.238 15.5719C128.134 15.6702 128.051 15.7883 127.993 15.9192L120.768 15.162L124.674 8.96182C124.759 8.98512 124.847 8.99661 124.936 8.99598L125.084 8.98459L128.238 15.5719ZM125.977 7.90853L135.856 4.2932L136.858 13.3401C136.739 13.3954 136.632 13.4705 136.539 13.5621L125.96 8.12489C125.972 8.06865 125.977 8.01144 125.977 7.95408V7.90853ZM129.986 16.4032L136.385 14.8375C136.475 14.9805 136.598 15.0996 136.744 15.1848L134.079 26.4179L129.655 17.0921C129.851 16.9139 129.969 16.6669 129.986 16.4032ZM137.353 15.3328C137.514 15.3221 137.67 15.2733 137.808 15.1905L144.555 21.1914L134.791 26.1162L137.353 15.3328ZM143.536 9.59379L137.934 13.4597L141.652 3.7751L143.832 8.51774C143.726 8.61594 143.641 8.73473 143.582 8.86688C143.523 8.99902 143.492 9.14175 143.49 9.28635C143.491 9.39048 143.506 9.49402 143.536 9.59379ZM138.23 14.7179C138.289 14.5854 138.32 14.4419 138.321 14.2966C138.32 14.1925 138.305 14.0889 138.275 13.9892L143.895 10.1119C144.005 10.1994 144.133 10.2616 144.27 10.2941L144.76 20.5366L138.23 14.7179ZM138.127 3.70678C139.272 3.36518 140.319 3.12605 141.276 3.01218L137.444 12.9757L136.448 3.96868C137.017 3.95659 137.582 3.86851 138.127 3.70678ZM135.178 3.87189H135.172L125.761 7.31642C125.684 7.22022 125.592 7.13749 125.488 7.0716L127.042 1.01948C130.003 1.44649 132.428 3.40503 135.178 3.87189ZM121.036 2.51116C123.068 1.22445 124.822 0.854366 126.41 0.956848L124.879 6.91218C124.701 6.92331 124.529 6.97807 124.378 7.0716L119.942 3.3424C120.281 3.03309 120.647 2.75489 121.036 2.51116ZM119.498 3.78649L123.973 7.54985C123.921 7.67812 123.894 7.81543 123.894 7.95408C123.893 8.19998 123.98 8.43811 124.139 8.62591L120.073 15.088H120.062C118.405 11.8427 116.555 7.04882 119.498 3.78649ZM121.303 17.3881C121.058 16.944 120.745 16.3861 120.409 15.7541L127.925 16.5398C127.946 16.6283 127.976 16.7142 128.016 16.796L123.188 21.4532C122.835 20.3487 122.095 18.8741 121.303 17.3881ZM124.349 31.4908C123.666 28.5757 123.905 24.6586 123.364 22.1478H123.37L128.448 17.2458L128.5 17.2743L126.052 34.8044C125.135 34.0528 124.548 32.3619 124.349 31.4908ZM131.961 28.6725C130.367 32.3334 128.557 35.1801 126.997 35.1801C126.875 35.1799 126.755 35.1626 126.638 35.1289L129.115 17.4109L133.595 26.8677C132.793 27.0784 132.343 27.7957 131.961 28.6725ZM141.247 35.1801C139.852 35.1801 137.974 32.0715 136.288 28.6725C136.161 28.4113 136.02 28.1567 135.867 27.9096H135.873L143.918 31.4054L143.9 31.4908C143.633 32.6352 142.699 35.1801 141.247 35.1801ZM144.043 30.7734L134.859 26.7823L144.982 21.681C144.976 21.7095 144.965 21.7322 144.959 21.7607C144.345 24.0495 144.567 27.8014 144.043 30.7734ZM146.946 17.3881C146.349 18.4927 145.779 19.5915 145.386 20.5366L144.897 10.2656C144.949 10.2487 144.998 10.2258 145.045 10.1973L148.546 13.4654C148.152 14.8255 147.616 16.1403 146.946 17.3881Z" fill="url(#paint0_linear_201_3847)"/>
<defs>
<linearGradient id="paint0_linear_201_3847" x1="133.524" y1="36.0728" x2="133.524" y2="0.0453294" gradientUnits="userSpaceOnUse">
<stop stop-color="#00375B"/>
<stop offset="1" stop-color="#6C7595"/>
</linearGradient>
</defs>
</svg>

<svg width="150" height="44" fill="none" xmlns="http://www.w3.org/2000/svg"><path d="m37.685 31.644 4.566-4.208h-4.765V9.104h.045l-4.327-4.322h-8.671l-.142.154L8.022 21.441l-.017 5.995H4.652L0 31.644h37.685ZM12.52 22.432 26.064 9.104h6.56v18.332H12.52v-5.004Z" fill="#00375B"/><path d="M4.693 41.522v-3.103h.763v3.103h.757v1.24l-.757.65v-1.298H.918v-3.695h.757v3.103h3.018ZM10.488 39.33l-2.79 2.784h-.643v-3.695h.763v2.687l2.67-2.687h.763v3.695h-.763V39.33ZM15.742 41.522h2.09v-2.51h-2.038l.592-.593h1.566l.643.592v2.511l-.643.592h-2.21v1.56h-.762v-1.56h-2.204l-.643-.592v-2.51l.643-.593h2.204v-1.002h.762v4.105Zm-2.852 0h2.09v-2.51h-2.09v2.51ZM19.477 38.419h.757v3.103h2.892V39.01h-2.83l.644-.592h2.357l.592.592h-.006v2.517h-.005l-.65.586h-2.994v1.56h-.757v-5.255ZM24.566 39.011l.644-.592h3.302l.655.592v2.51l-.655.593H25.21l-.644-.592V39.01Zm3.838 0h-3.075v2.51h3.075v-2.51ZM34.372 39.011v.968l-.297.256.297.256v1.03l-.644.593h-3.832v-3.695h3.832l.644.592Zm-.758 0H30.66v.91h2.955v-.91Zm0 2.51v-1.007H30.66v1.008h2.955ZM35.955 38.419h2.818l.655.592v3.103h-.763v-1.606H35.78v1.014h2.83l-.593.592h-2.408l-.592-.592v-1.014l.592-.592h3.057v-.905h-3.302l.592-.592ZM44.153 38.419v3.695h-.763v-1.15h-1.235l-1.156 1.15h-.905l1.161-1.15H41l-.763-.65v-1.246l.763-.65h3.154ZM41 40.372h2.391V39.01H41v1.36ZM49.322 41.522V39.01l.592-.592h3.229l.592.592H50.08v2.51h3.655l-.592.593h-3.229l-.592-.592ZM58.756 39.011h-1.85v3.103h-.763V39.01h-1.862l.644-.592h3.188l.643.592ZM59.348 39.011l.637-.592h3.303l.654.592v2.51l-.654.593h-3.303l-.637-.592V39.01Zm3.837 0h-3.08v2.51h3.08v-2.51ZM65.36 38.419h.006l1.936 1.827 1.953-1.827h.637v3.695h-.763V39.37l-1.833 1.72-1.81-1.732v2.756h-.758v-3.695h.632ZM71.584 38.419h2.818l.655.592v3.103h-.763v-1.606h-2.892v1.014h2.83l-.593.592h-2.402l-.593-.592v-1.014l.593-.592h3.057v-.905h-3.302l.592-.592ZM80.14 39.011h-1.851v3.103h-.757V39.01h-1.868l.644-.592h3.188l.643.592ZM80.732 39.011l.644-.592h3.302l.655.592v2.51l-.655.593h-3.302l-.644-.592V39.01Zm3.838 0h-3.075v2.51h3.075v-2.51ZM85.918 42.115l1.77-3.7h1.037l1.793 3.7h-.87L88.143 39l-1.48 3.114h-.746ZM91.186 39.011l.643-.592h3.302l.65.592v2.51l-.65.593H91.83l-.643-.592V39.01Zm3.837 0h-3.08v2.51h3.08v-2.51ZM99.573 38.419l.654.592h-2.903v3.103h-.758v-3.695h3.007ZM104.39 39.33l-2.796 2.784h-.637v-3.695h.757v2.687l2.676-2.687h.757v3.695h-.757V39.33ZM109.952 38.419v3.695h-.758v-1.15h-1.235l-1.162 1.15h-.899l1.156-1.15h-.257l-.757-.65v-1.246l.757-.65h3.155Zm-3.155 1.953h2.397V39.01h-2.397v1.36Z" fill="#314C89"/><path d="m39.262 6.49 1.788-1.645h9.172l1.816 1.645v6.974l-1.816 1.646H41.05l-1.788-1.646V6.49Zm10.663 0h-8.551v6.974h8.551V6.49ZM65.533 6.49v6.975l-1.816 1.645h-8.398l-1.8-1.645V2.18L55.337.535h8.238l1.782 1.646h-9.724v4.31l1.975-1.646h6.11l1.816 1.645Zm-2.113 6.975V6.49h-7.788v6.975h7.788ZM67.273 4.845h2.107v8.62h8.033V6.49h-7.856l1.781-1.645h6.56l1.645 1.645h-.017v6.992h-.017l-1.8 1.628H69.38v4.321h-2.107V4.845ZM83.534 13.465h7.179v-3.171h-7.339v4.816h-2.106V4.828h2.106v3.826h7.806l1.645 1.64v3.171L91.01 15.11h-5.83l-1.645-1.645ZM94.59 4.828h2.112V15.11H94.59V4.828ZM108.306 7.373l-7.754 7.737h-1.783V4.845h2.113v7.458l7.424-7.458h2.112V15.11h-2.112V7.373ZM100.5 0h2.113v2.038h3.53V0h2.112v2.038l-1.816 1.646h-4.156L100.5 2.038V0ZM44.113 23.104l1.782-1.645h9.172l1.817 1.645v6.975l-1.817 1.645h-9.172l-1.782-1.645v-6.975Zm10.658 0h-8.546v6.975h8.546v-6.975ZM58.625 21.459h2.112v10.265h-2.112V21.46Zm10.766 0-5.733 5.022 6.007 5.243H66.76l-5.853-5.26 5.853-5.005h2.63ZM82.212 23.104h-5.135v8.62h-2.113v-8.62H69.79l1.782-1.645h8.86l1.781 1.645ZM83.426 23.104l1.782-1.645h9.172l1.816 1.645v6.975l-1.816 1.645h-9.172l-1.782-1.645v-6.975Zm10.664 0h-8.552v6.975h8.552v-6.975ZM97.938 21.459h2.112v8.62h8.033v-6.975h-7.862l1.787-1.645h6.559l1.64 1.645h-.017v6.992h-.017l-1.799 1.628h-8.324v4.327h-2.112V21.46Z" fill="#00375B"/><path fill-rule="evenodd" clip-rule="evenodd" d="M148.888 5.631c-1.594-2.454-3.61-3.598-6.337-3.598-1.315 0-2.801.262-4.68.814a5.388 5.388 0 0 1-1.554.234c-1.56 0-3.041-.678-4.601-1.39-1.776-.808-3.609-1.645-5.801-1.645-1.782 0-3.536.558-5.358 1.714-2.869 1.81-3.985 4.571-3.319 8.198.518 2.835 2.05 5.625 2.966 7.288l.308.563c.785 1.464 1.617 3.103 1.901 4.18.285 1.075.388 2.72.484 4.4.097 1.805.2 3.678.581 5.301.103.45 1.082 4.384 3.519 4.384 1.053 0 2.1-.734 3.194-2.249.837-1.161 1.708-2.773 2.59-4.8.484-1.115.837-1.326 1.315-1.326h.052c.512 0 .814.307 1.338 1.372 2.442 4.908 4.161 7.003 5.761 7.003 2.437 0 3.416-3.934 3.519-4.384.376-1.617.478-3.473.575-5.266.091-1.691.176-3.291.484-4.436.307-1.144 1.173-2.818 1.907-4.179 1.981-3.695 3.325-8.836 1.156-12.178Zm-.16 7.151-3.256-3.046a.987.987 0 0 0 .102-.45 1.11 1.11 0 0 0-.091-.432l2.79-2.517c1.059 1.828.996 4.196.455 6.445Zm-.802-6.98-2.864 2.59a1.042 1.042 0 0 0-.53-.148l-.131.012-2.442-5.312c2.534-.154 4.424.655 5.967 2.858Zm-22.279 2.91c.012-.006.017-.018.029-.03l10.572 5.438c-.005.034-.005.068-.011.103l-6.399 1.571a1.039 1.039 0 0 0-.889-.507.628.628 0 0 0-.148.017l-3.154-6.593Zm2.591 6.86a1.079 1.079 0 0 0-.245.347l-7.225-.757 3.906-6.2a.964.964 0 0 0 .262.034l.148-.011 3.154 6.587Zm-2.261-7.663 9.879-3.616 1.002 9.047c-.119.055-.226.13-.319.222L125.96 8.125a.817.817 0 0 0 .017-.17v-.046Zm4.009 8.494 6.399-1.565c.09.143.213.262.359.347l-2.665 11.233-4.424-9.326c.196-.178.314-.425.331-.689Zm7.367-1.07c.161-.01.317-.06.455-.143l6.747 6.001-9.764 4.925 2.562-10.783Zm6.183-5.74-5.602 3.867 3.718-9.685 2.18 4.743a1.071 1.071 0 0 0-.342.768c.001.104.016.208.046.308Zm-5.306 5.125a1.054 1.054 0 0 0 .045-.729l5.62-3.877c.11.087.238.15.375.182l.49 10.243-6.53-5.82Zm-.103-11.011c1.145-.342 2.192-.58 3.149-.695l-3.832 9.964-.996-9.007a6.38 6.38 0 0 0 1.679-.262Zm-2.949.165h-.006l-9.411 3.444a1.112 1.112 0 0 0-.273-.244l1.554-6.053c2.961.427 5.386 2.386 8.136 2.853Zm-14.142-1.36c2.032-1.288 3.786-1.658 5.374-1.555l-1.531 5.955c-.178.011-.35.066-.501.16l-4.436-3.73c.339-.309.705-.587 1.094-.83Zm-1.538 1.274 4.475 3.764a1.076 1.076 0 0 0-.079.404c-.001.246.086.484.245.672l-4.066 6.462h-.011c-1.657-3.245-3.507-8.04-.564-11.302Zm1.805 13.602c-.245-.444-.558-1.002-.894-1.634l7.516.786c.021.088.051.174.091.256l-4.828 4.657c-.353-1.104-1.093-2.579-1.885-4.065Zm3.046 14.103c-.683-2.915-.444-6.832-.985-9.343h.006l5.078-4.902.052.028-2.448 17.53c-.917-.751-1.504-2.442-1.703-3.313Zm7.612-2.819c-1.594 3.661-3.404 6.508-4.964 6.508a1.3 1.3 0 0 1-.359-.051l2.477-17.718 4.48 9.457c-.802.21-1.252.928-1.634 1.805Zm9.286 6.508c-1.395 0-3.273-3.108-4.959-6.508a8.563 8.563 0 0 0-.421-.762h.006l8.045 3.495-.018.086c-.267 1.144-1.201 3.69-2.653 3.69Zm2.796-4.407-9.184-3.99 10.123-5.102c-.006.028-.017.051-.023.08-.614 2.288-.392 6.04-.916 9.012Zm2.903-13.385c-.597 1.105-1.167 2.203-1.56 3.149l-.489-10.271a.704.704 0 0 0 .148-.069l3.501 3.268a20.133 20.133 0 0 1-1.6 3.923Z" fill="url(#a)"/><defs><linearGradient id="a" x1="133.524" y1="36.073" x2="133.524" y2=".045" gradientUnits="userSpaceOnUse"><stop stop-color="#00375B"/><stop offset="1" stop-color="#6C7595"/></linearGradient></defs></svg>
